img/footer/linkedin.svg

<svg width="20" height="20" viewBox="0 0 20 20" fill="none" xmlns="http://www.w3.org/2000/svg">
<path d="M4.78513 6.93359H1.03472C0.868269 6.93359 0.733398 7.06852 0.733398 7.23491V19.2834C0.733398 19.4498 0.868269 19.5847 1.03472 19.5847H4.78513C4.95158 19.5847 5.08645 19.4498 5.08645 19.2834V7.23491C5.08645 7.06852 4.95158 6.93359 4.78513 6.93359Z" fill="white"/>
<path d="M2.91132 0.945312C1.54671 0.945312 0.436523 2.05429 0.436523 3.4174C0.436523 4.78112 1.54671 5.89052 2.91132 5.89052C4.27486 5.89052 5.38414 4.78106 5.38414 3.4174C5.3842 2.05429 4.27486 0.945312 2.91132 0.945312Z" fill="white"/>
<path d="M14.3245 6.63281C12.8182 6.63281 11.7047 7.28035 11.0293 8.01611V7.23358C11.0293 7.0672 10.8944 6.93226 10.728 6.93226H7.13628C6.96983 6.93226 6.83496 7.0672 6.83496 7.23358V19.282C6.83496 19.4485 6.96983 19.5834 7.13628 19.5834H10.8785C11.0449 19.5834 11.1798 19.4485 11.1798 19.282V13.3209C11.1798 11.3121 11.7254 10.5295 13.1257 10.5295C14.6508 10.5295 14.772 11.7841 14.772 13.4242V19.2821C14.772 19.4486 14.9068 19.5834 15.0733 19.5834H18.8169C18.9833 19.5834 19.1182 19.4486 19.1182 19.2821V12.6733C19.1182 9.68633 18.5487 6.63281 14.3245 6.63281Z" fill="white"/>
</svg>

<svg width="20" height="20" fill="none" xmlns="http://www.w3.org/2000/svg"><path d="M4.785 6.934h-3.75a.301.301 0 00-.302.3v12.05a.3.3 0 00.302.3h3.75a.301.301 0 00.301-.3V7.233a.301.301 0 00-.3-.3zM2.911.945A2.476 2.476 0 00.437 3.417 2.477 2.477 0 002.91 5.891a2.476 2.476 0 002.473-2.474A2.475 2.475 0 002.911.945zm11.414 5.688c-1.507 0-2.62.647-3.296 1.383v-.782a.301.301 0 00-.301-.302H7.136a.301.301 0 00-.301.302v12.048c0 .166.135.301.301.301h3.743a.301.301 0 00.3-.301v-5.961c0-2.009.546-2.791 1.947-2.791 1.525 0 1.646 1.254 1.646 2.894v5.858a.3.3 0 00.301.301h3.744a.301.301 0 00.301-.3v-6.61c0-2.987-.57-6.04-4.793-6.04z" fill="#fff"/></svg>
